src/img/dec/monograma.svg

<svg width="401" height="293" viewBox="0 0 401 293" fill="none" xmlns="http://www.w3.org/2000/svg">
<path fill-rule="evenodd" clip-rule="evenodd" d="M30.5995 1.70698C41.7663 -0.339845 54.0346 1.47035 67.4033 7.13848C71.021 8.7131 82.188 14.6964 100.904 25.0878C105.937 27.9216 109.632 30.1259 111.991 31.7003C113.722 32.8025 115.61 32.8025 117.654 31.7003C133.382 23.1983 147.065 17.4517 158.704 14.4602C167.983 11.9411 177.499 11.3903 187.25 12.8073C192.126 13.4372 197.002 15.1684 201.877 18.0024C202.821 18.4748 203.607 19.0265 204.236 19.6563C208.168 22.8053 210.134 26.7415 210.134 31.4649C210.291 36.0307 208.404 39.9672 204.472 43.2735C198.181 48.6266 190.552 51.9323 181.588 53.1918C169.163 55.2386 155.165 53.5863 139.594 48.2332C132.988 45.714 127.484 43.2731 123.08 40.9114C120.878 39.9668 119.07 40.1241 117.654 41.3832C107.431 48.1535 99.016 55.0814 92.4102 62.1665C88.6355 66.4176 85.3326 71.4563 82.5015 77.2819C81.8725 78.3839 81.6368 79.0927 81.7941 79.4076C82.1087 79.7224 82.8166 79.8794 83.9175 79.8794C96.8144 79.8794 108.375 77.5964 118.598 73.0305C121.586 71.7709 124.103 70.1175 126.147 68.0708C126.304 67.9135 126.54 67.7563 126.855 67.599C127.169 67.4415 127.405 67.2836 127.562 67.1262C128.348 66.6538 128.978 66.8117 129.45 67.599C130.079 68.0713 130.157 68.7012 129.685 69.4883C129.528 69.8031 129.292 70.1181 128.978 70.4329C128.821 70.5903 128.585 70.8264 128.27 71.1412C127.956 71.2986 127.719 71.4565 127.562 71.614C123.316 74.2905 119.069 76.3377 114.822 77.7547C104.285 81.0609 94.3765 82.6353 85.0973 82.4779H82.9738C81.5586 82.6353 80.6148 82.8713 80.1429 83.1862C79.8284 83.501 79.5138 84.3669 79.1993 85.7837C78.2556 89.5625 78.8847 93.1058 81.0866 96.4122C83.2884 99.561 85.9625 101.844 89.108 103.261C92.568 104.836 96.5003 105.858 100.904 106.331C102.28 106.441 103.7 106.492 105.163 106.486C107.739 99.4117 111.716 92.8469 117.093 86.7918C126.21 76.3085 138.406 69.2787 153.683 65.702C162.431 63.6053 172.78 62.9878 184.73 63.8511C193.108 64.4678 203.026 66.503 214.483 69.9563C221.136 71.9296 233.026 76.5553 250.151 83.8319C256.311 86.422 265.058 90.4301 276.393 95.8568C287.851 101.283 294.442 104.367 296.167 105.107C309.35 111.027 320.192 115.405 328.693 118.242C330.54 118.735 332.142 118.612 333.497 117.872C339.041 114.665 344.462 112.569 349.76 111.582C355.674 110.719 360.541 111.027 364.36 112.507C366.454 113.124 368.179 114.049 369.534 115.282C371.136 116.762 371.814 118.489 371.567 120.462C371.444 122.312 370.458 123.73 368.611 124.717C366.639 125.827 364.421 126.382 361.957 126.382C355.181 126.875 347.481 125.951 338.857 123.607C338.487 123.607 337.932 123.484 337.193 123.237C335.715 122.744 334.298 122.991 332.943 123.977C328.262 126.814 322.841 131.315 316.681 137.482C308.919 144.759 299.062 154.996 287.112 168.192C276.641 179.784 270.85 186.198 269.741 187.432C266.784 190.639 264.997 192.736 264.381 193.723L264.751 194.093C265.244 193.723 266.784 192.674 269.371 190.947C270.356 190.331 271.034 189.961 271.403 189.837C272.142 189.837 272.635 190.084 272.882 190.577C273.128 190.947 272.882 191.379 272.142 191.873C266.352 195.696 262.594 197.978 260.87 198.718C259.884 199.211 258.713 200.136 257.358 201.492C254.648 204.452 250.767 209.016 245.716 215.183C240.664 221.226 236.845 225.728 234.258 228.688C222.184 242.131 214.36 250.641 210.788 254.218C210.172 254.834 209.248 255.698 208.016 256.808L205.244 259.583C204.258 260.323 204.381 260.94 205.613 261.433C209.309 262.666 214.361 264.825 220.767 267.908C227.174 271.115 231.609 273.212 234.073 274.199C249.473 280.859 258.652 284.62 261.609 285.484C270.479 288.197 277.317 289.739 282.122 290.109C287.173 290.725 293.026 290.849 299.679 290.479C306.455 290.109 313.724 288.937 321.485 286.963C326.044 285.853 331.465 283.634 337.748 280.304C343.661 277.344 348.528 274.383 352.347 271.423C356.289 268.587 361.587 263.53 368.24 256.253C375.016 249.1 383.764 238.74 394.482 225.173C394.975 224.803 395.653 224.186 396.516 223.323C397.501 222.46 398.24 221.781 398.733 221.288C399.472 220.794 400.027 220.733 400.397 221.103C400.643 221.35 400.519 221.781 400.027 222.398C399.288 223.138 398.117 224.248 396.516 225.727C377.05 251.504 361.587 268.278 350.129 276.049C346.187 278.762 339.534 282.091 330.171 286.038C323.148 288.998 314.832 291.095 305.223 292.329C300.787 292.699 296.414 292.883 292.102 292.883C284.217 293.006 275.777 291.897 266.783 289.553C259.021 287.58 249.104 283.942 237.03 278.638C234.812 277.775 226.866 274.137 213.19 267.724C210.234 266.367 206.969 265.072 203.396 263.838C201.917 263.222 200.624 263.468 199.515 264.578C191.999 271.238 185.162 276.418 179.001 280.118C172.102 284.065 166.004 286.593 160.707 287.703C157.503 288.443 154.484 288.567 151.65 288.073C146.599 287.087 143.766 284.373 143.15 279.933C142.904 277.96 143.458 275.678 144.812 273.089C147.769 268.032 152.451 263.962 158.858 260.878C169.083 255.822 180.419 254.773 192.862 257.733C194.957 258.226 196.989 257.671 198.96 256.068C202.41 252.984 209.987 245.153 221.691 232.573C227.851 225.789 235.12 217.218 243.498 206.857C244.114 206.241 244.421 205.81 244.422 205.563C244.175 205.316 243.868 205.316 243.498 205.563C234.012 208.03 224.833 209.633 215.963 210.373C209.063 210.989 202.472 211.113 196.188 210.743C183.868 209.879 171.055 206.672 157.749 201.122C156.702 200.679 155.67 200.227 154.653 199.767C153.741 200.491 152.811 201.228 151.862 201.98C138.179 213.632 127.091 222.056 118.598 227.252C108.217 233.707 98.1509 238.43 88.3995 241.421C70.3124 246.617 53.6408 244.728 38.3847 235.753C31.15 231.502 25.7241 225.362 22.1067 217.332C18.6466 209.46 17.8599 201.272 19.7471 192.77C21.7918 183.953 25.6449 175.608 31.307 167.736C39.1709 156.399 49.8666 145.929 63.3926 136.325C72.5148 130.027 82.7383 124.91 94.0623 120.974C96.993 119.968 99.7223 119.021 102.252 118.138C102.673 115.207 103.302 112.351 104.139 109.57C100.009 109.644 95.942 109.274 91.9389 108.456C85.0186 107.039 79.4351 103.497 75.1886 97.8287C72.8294 95.1521 71.6492 91.2948 71.6492 86.2565C71.6492 85.7842 71.7281 85.3904 71.8854 85.0755C71.8854 83.659 71.7283 82.7931 71.414 82.4779C71.2568 82.163 70.5487 81.9262 69.2906 81.7687C63.3142 80.8241 58.7529 79.9584 55.6073 79.1712C39.2503 75.5499 25.9596 69.4886 15.7364 60.9864C10.3889 56.7353 6.37805 51.7755 3.7043 46.1075C0.873322 40.282 -0.0702039 34.3775 0.873382 28.3945C1.81706 22.4115 4.56987 17.1369 9.13095 12.5709C14.9503 6.74538 22.1064 3.12402 30.5995 1.70698ZM178.262 259.028C169.515 259.152 161.445 261.804 154.053 266.984C150.604 269.327 148.14 272.287 146.661 275.863C145.06 279.933 146.353 282.585 150.542 283.818C151.158 284.065 152.082 284.188 153.314 284.188C155.901 284.311 159.659 283.387 164.587 281.414C169.884 278.947 175.737 275.247 182.143 270.313C188.919 264.64 192.493 261.618 192.862 261.248C192.369 260.755 191.506 260.385 190.274 260.138C186.455 259.398 182.451 259.028 178.262 259.028ZM101.71 123.62C87.4948 130.437 73.2272 139.552 58.9096 150.967C47.5855 159.784 38.9356 170.334 32.959 182.615C29.0271 190.802 27.5324 199.383 28.476 208.358C29.7343 219.851 35.947 228.589 47.1136 234.572C57.9659 240.398 69.762 242.051 82.5015 239.532C92.8819 237.643 104.285 232.92 116.71 225.362C123.787 220.954 133.775 213.553 146.672 203.162C148.36 201.763 150.205 200.253 152.206 198.632C142.661 194.082 134.468 188.745 127.626 182.622C112.226 168.932 103.664 152.776 101.939 134.152C101.598 130.545 101.522 127.034 101.71 123.62ZM173.088 65.5165C168.407 65.7632 164.895 66.0719 162.554 66.4419C154.423 67.5519 147.585 69.2783 142.041 71.6216C129.351 76.8017 119.433 85.0655 112.287 96.4122C110.272 99.612 108.61 102.954 107.3 106.438C113.67 106.18 120.817 104.885 128.742 102.552C130.315 102.08 132.595 101.45 135.583 100.663C138.572 99.8754 140.774 99.2457 142.19 98.7734C143.133 98.4586 143.763 98.3015 144.077 98.3015C144.863 97.9868 145.414 98.1437 145.728 98.7734C146.043 99.2457 145.964 99.8755 145.492 100.663C144.863 101.292 144.392 101.844 144.077 102.317C142.662 103.734 139.201 106.095 133.696 109.401C130.393 111.133 123.158 114.361 111.991 119.085C109.27 120.18 106.546 121.359 103.82 122.623C103.518 126.854 103.629 131.252 104.156 135.817C106.128 153.207 114.258 168.255 128.55 180.958C135.756 187.357 144.169 192.823 153.788 197.356C162.415 190.406 173.726 181.555 187.722 170.806C188.98 169.546 189.846 169.232 190.317 169.861C190.946 170.491 190.553 171.357 189.138 172.459C188.548 172.902 177.592 181.578 156.271 198.485C172.416 205.543 188.74 209.014 205.244 208.893C210.295 208.893 216.148 208.461 222.8 207.597C231.794 206.117 239.618 204.329 246.271 202.232C247.625 201.739 248.549 201.184 249.042 200.568C250.274 199.211 252.061 197.176 254.401 194.463C256.865 191.749 258.652 189.714 259.761 188.358C265.921 181.081 278.672 167.02 298.015 146.177C307.994 135.817 317.728 127.554 327.214 121.387L327.584 121.202C327.707 121.079 327.83 120.955 327.953 120.832C327.337 120.339 326.536 119.969 325.551 119.722C315.695 116.269 306.947 112.692 299.308 108.992C295.981 107.511 287.542 103.626 273.99 97.3367C260.562 90.9235 250.151 86.1753 242.759 83.092C227.975 76.8019 215.531 72.3618 205.428 69.7717C193.97 66.8118 183.19 65.3932 173.088 65.5165ZM365.099 115.282C362.758 114.296 359.863 113.926 356.413 114.172C350.623 114.542 344.586 116.701 338.303 120.647C338.303 120.771 338.364 120.894 338.487 121.017L338.672 121.202C347.789 123.668 356.043 124.594 363.435 123.977C365.283 123.977 366.762 123.484 367.87 122.497C370.088 120.894 370.15 119.105 368.056 117.132C367.563 116.639 366.577 116.022 365.099 115.282ZM138.414 102.552C136.684 103.024 134.247 103.654 131.101 104.441C128.113 105.229 125.36 105.937 122.844 106.567C120.327 107.197 117.968 107.748 115.766 108.221C112.56 108.9 109.39 109.322 106.257 109.493C105.464 112.049 104.851 114.677 104.42 117.379C110.364 115.291 115.09 113.578 118.598 112.236C126.934 109.244 133.539 106.016 138.414 102.552ZM69.0544 10.9171C56.6294 5.09154 45.4624 2.57264 35.5538 3.35988C24.3872 4.30456 15.6583 8.47692 9.3671 15.8767C3.70503 22.8045 1.73903 30.284 3.46911 38.3139C4.72742 44.1393 8.03043 49.886 13.3778 55.554C19.1971 61.5369 26.6678 66.4967 35.79 70.4329C46.6422 74.9989 58.1238 77.9116 70.2342 79.1712C71.8069 79.3285 72.8295 78.7777 73.3013 77.5183C75.6605 69.8033 80.6928 62.0879 88.3995 54.3729C94.0616 48.7048 100.982 42.9583 109.161 37.1328C110.419 36.503 111.206 35.7943 111.52 35.0071C110.576 34.0624 108.059 32.4881 103.97 30.2838C84.3102 19.1051 72.6719 12.649 69.0544 10.9171ZM186.778 18.2388C181.588 18.0814 175.847 18.6322 169.556 19.8917C156.502 22.4109 141.796 28.0005 125.44 36.66C124.496 36.9749 124.024 37.4477 124.024 38.0774L124.26 38.5493C124.417 38.5494 124.496 38.6284 124.496 38.7857C129.213 40.9896 131.887 42.1712 132.516 42.3289C149.66 50.0437 165.702 52.9564 180.644 51.0671C188.351 50.1224 195.193 47.4456 201.17 43.0371C202.271 42.2499 203.607 40.9112 205.179 39.0221C207.067 36.1881 207.697 33.2753 207.068 30.2838C206.596 27.1349 204.944 24.6151 202.113 22.7257C198.024 20.2065 192.912 18.7112 186.778 18.2388Z" fill="#EBF0EC"/>
</svg>

<svg xmlns="http://www.w3.org/2000/svg" width="401" height="293" fill="none"><path fill="#F8FAF8" fill-rule="evenodd" d="M30.6 1.707C41.766-.34 54.034 1.47 67.403 7.138c3.618 1.575 14.785 7.558 33.501 17.95 5.033 2.834 8.728 5.038 11.087 6.612 1.731 1.103 3.619 1.103 5.663 0 15.728-8.502 29.411-14.248 41.05-17.24 9.279-2.519 18.795-3.07 28.546-1.653 4.876.63 9.752 2.361 14.627 5.195.944.473 1.73 1.024 2.359 1.654 3.932 3.15 5.898 7.085 5.898 11.809.157 4.566-1.73 8.502-5.662 11.808-6.291 5.354-13.92 8.66-22.884 9.919-12.425 2.047-26.423.394-41.994-4.959-6.606-2.519-12.11-4.96-16.514-7.322-2.202-.944-4.01-.787-5.426.472-10.223 6.77-18.638 13.698-25.244 20.783-3.775 4.252-7.077 9.29-9.909 15.116-.629 1.102-.864 1.81-.707 2.126.315.314 1.023.471 2.124.471 12.896 0 24.457-2.283 34.68-6.849 2.988-1.26 5.505-2.912 7.549-4.96.157-.156.393-.314.708-.471.314-.157.55-.315.707-.473.786-.472 1.416-.314 1.888.473.629.472.707 1.102.235 1.89-.157.314-.393.63-.707.944l-.708.708c-.314.158-.551.316-.708.473-4.246 2.676-8.493 4.724-12.74 6.14-10.537 3.307-20.446 4.881-29.725 4.724h-2.123c-1.415.157-2.36.393-2.831.708-.315.315-.63 1.18-.944 2.598-.943 3.778-.314 7.322 1.888 10.628 2.201 3.149 4.876 5.432 8.021 6.849 3.46 1.575 7.392 2.597 11.796 3.07 1.376.11 2.796.161 4.259.155 2.576-7.074 6.553-13.64 11.93-19.694 9.117-10.484 21.313-17.513 36.59-21.09 8.748-2.097 19.097-2.714 31.047-1.85 8.378.616 18.296 2.651 29.753 6.104 6.653 1.974 18.543 6.6 35.668 13.876 6.16 2.59 14.907 6.598 26.242 12.025 11.458 5.426 18.049 8.51 19.774 9.25 13.183 5.92 24.025 10.298 32.526 13.135 1.847.493 3.449.37 4.804-.37 5.544-3.207 10.965-5.303 16.263-6.29 5.914-.863 10.781-.555 14.6.925 2.094.617 3.819 1.542 5.174 2.775 1.602 1.48 2.28 3.207 2.033 5.18-.123 1.85-1.109 3.268-2.956 4.255-1.972 1.11-4.19 1.665-6.654 1.665-6.776.493-14.476-.431-23.1-2.775-.37 0-.925-.123-1.664-.37-1.478-.493-2.895-.246-4.25.74-4.681 2.837-10.102 7.338-16.262 13.505-7.762 7.277-17.619 17.514-29.569 30.71a24779.833 24779.833 0 0 0-17.371 19.24c-2.957 3.207-4.744 5.304-5.36 6.291l.37.37c.493-.37 2.033-1.419 4.62-3.146.985-.616 1.663-.986 2.032-1.11.739 0 1.232.247 1.479.74.246.37 0 .802-.74 1.296-5.79 3.823-9.548 6.105-11.272 6.845-.986.493-2.157 1.418-3.512 2.774-2.71 2.96-6.591 7.524-11.642 13.691-5.052 6.043-8.871 10.545-11.458 13.505-12.074 13.443-19.898 21.953-23.47 25.53-.616.616-1.54 1.48-2.772 2.59l-2.772 2.775c-.986.74-.863 1.357.369 1.85 3.696 1.233 8.748 3.392 15.154 6.475 6.407 3.207 10.842 5.304 13.306 6.291 15.4 6.66 24.579 10.421 27.536 11.285 8.87 2.713 15.708 4.255 20.513 4.625 5.051.616 10.904.74 17.557.37 6.776-.37 14.045-1.542 21.806-3.516 4.559-1.11 9.98-3.329 16.263-6.659 5.913-2.96 10.78-5.921 14.599-8.881 3.942-2.836 9.24-7.893 15.893-15.17 6.776-7.153 15.524-17.513 26.242-31.08.493-.37 1.171-.987 2.034-1.85.985-.863 1.724-1.542 2.217-2.035.739-.494 1.294-.555 1.664-.185.246.247.122.678-.37 1.295-.739.74-1.91 1.85-3.511 3.329-19.466 25.777-34.929 42.551-46.387 50.322-3.942 2.713-10.595 6.042-19.958 9.989-7.023 2.96-15.339 5.057-24.948 6.291-4.436.37-8.809.554-13.121.554-7.885.123-16.325-.986-25.319-3.33-7.762-1.973-17.679-5.611-29.753-10.915-2.218-.863-10.164-4.501-23.84-10.914-2.956-1.357-6.221-2.652-9.794-3.886-1.479-.616-2.772-.37-3.881.74-7.516 6.66-14.353 11.84-20.514 15.54-6.899 3.947-12.997 6.475-18.294 7.585-3.204.74-6.223.864-9.057.37-5.051-.986-7.884-3.7-8.5-8.14-.246-1.973.308-4.255 1.662-6.844 2.957-5.057 7.639-9.127 14.046-12.211 10.225-5.056 21.561-6.105 34.004-3.145 2.095.493 4.127-.062 6.098-1.665 3.45-3.084 11.027-10.915 22.731-23.495 6.16-6.784 13.429-15.355 21.807-25.716.616-.616.923-1.047.924-1.294-.247-.247-.554-.247-.924 0-9.486 2.467-18.665 4.07-27.535 4.81-6.9.616-13.491.74-19.775.37-12.32-.864-25.133-4.071-38.439-9.621a137.93 137.93 0 0 1-3.096-1.355l-2.791 2.213c-13.683 11.652-24.771 20.076-33.264 25.272-10.381 6.455-20.447 11.178-30.198 14.169-18.088 5.196-34.76 3.307-50.015-5.668-7.235-4.251-12.66-10.391-16.278-18.421-3.46-7.872-4.247-16.06-2.36-24.562 2.045-8.817 5.898-17.162 11.56-25.034 7.864-11.337 18.56-21.807 32.086-31.411 9.122-6.298 19.345-11.415 30.67-15.351 2.93-1.006 5.66-1.953 8.189-2.836a58.588 58.588 0 0 1 1.887-8.568 55.764 55.764 0 0 1-12.2-1.114c-6.92-1.417-12.504-4.959-16.75-10.627-2.36-2.677-3.54-6.534-3.54-11.572 0-.473.08-.867.236-1.181 0-1.417-.157-2.283-.471-2.598-.157-.315-.865-.552-2.123-.71-5.977-.944-10.538-1.81-13.684-2.597C39.25 75.55 25.96 69.49 15.737 60.986c-5.348-4.25-9.359-9.21-12.033-14.878C.874 40.282-.07 34.377.874 28.395 1.816 22.412 4.57 17.137 9.13 12.57c5.82-5.826 12.975-9.447 21.468-10.864Zm147.662 257.321c-8.747.124-16.817 2.776-24.209 7.956-3.449 2.343-5.913 5.303-7.392 8.879-1.601 4.07-.308 6.722 3.881 7.955.616.247 1.54.37 2.772.37 2.587.123 6.345-.801 11.273-2.774 5.297-2.467 11.15-6.167 17.556-11.101 6.776-5.673 10.35-8.695 10.719-9.065-.493-.493-1.356-.863-2.588-1.11-3.819-.74-7.823-1.11-12.012-1.11ZM101.71 123.62c-14.215 6.817-28.483 15.932-42.8 27.347-11.324 8.817-19.974 19.367-25.951 31.648-3.932 8.187-5.427 16.768-4.483 25.743 1.258 11.493 7.471 20.231 18.638 26.214 10.852 5.826 22.648 7.479 35.387 4.96 10.38-1.889 21.784-6.612 34.209-14.17 7.077-4.408 17.065-11.809 29.962-22.2a642.914 642.914 0 0 1 5.534-4.53c-9.545-4.55-17.738-9.887-24.58-16.01-15.4-13.69-23.962-29.846-25.687-48.47a70.587 70.587 0 0 1-.229-10.532Zm71.378-58.104c-4.681.247-8.193.556-10.534.926-8.131 1.11-14.969 2.836-20.513 5.18-12.69 5.18-22.608 13.444-29.754 24.79a55.296 55.296 0 0 0-4.987 10.026c6.37-.258 13.517-1.553 21.442-3.886 1.573-.472 3.853-1.102 6.841-1.889 2.989-.788 5.191-1.417 6.607-1.89.943-.314 1.573-.471 1.887-.471.786-.315 1.337-.158 1.651.471.315.473.236 1.103-.236 1.89-.629.629-1.1 1.181-1.415 1.654-1.415 1.417-4.876 3.778-10.381 7.084-3.303 1.732-10.538 4.96-21.705 9.684a172.64 172.64 0 0 0-8.171 3.538c-.302 4.231-.191 8.629.336 13.194 1.972 17.39 10.102 32.438 24.394 45.141 7.206 6.399 15.619 11.865 25.238 16.398 8.627-6.95 19.938-15.801 33.934-26.55 1.258-1.26 2.124-1.574 2.595-.945.629.63.236 1.496-1.179 2.598-.59.443-11.546 9.119-32.867 26.026 16.145 7.058 32.469 10.529 48.973 10.408 5.051 0 10.904-.432 17.556-1.296 8.994-1.48 16.818-3.268 23.471-5.365 1.354-.493 2.278-1.048 2.771-1.664 1.232-1.357 3.019-3.392 5.359-6.105 2.464-2.714 4.251-4.749 5.36-6.105 6.16-7.277 18.911-21.338 38.254-42.181 9.979-10.36 19.713-18.623 29.199-24.79l.37-.185.369-.37c-.616-.493-1.417-.863-2.402-1.11-9.856-3.453-18.604-7.03-26.243-10.73-3.327-1.481-11.766-5.366-25.318-11.655-13.428-6.413-23.839-11.162-31.231-14.245-14.784-6.29-27.228-10.73-37.331-13.32-11.458-2.96-22.238-4.379-32.34-4.256Zm192.011 49.766c-2.341-.986-5.236-1.356-8.686-1.11-5.79.37-11.827 2.529-18.11 6.475 0 .124.061.247.184.37l.185.185c9.117 2.466 17.371 3.392 24.763 2.775 1.848 0 3.327-.493 4.435-1.48 2.218-1.603 2.28-3.392.186-5.365-.493-.493-1.479-1.11-2.957-1.85Zm-226.685-12.73c-1.73.472-4.167 1.102-7.313 1.889a684.821 684.821 0 0 1-8.257 2.126c-2.517.63-4.876 1.181-7.078 1.654a62.21 62.21 0 0 1-9.509 1.272 56.735 56.735 0 0 0-1.837 7.886c5.944-2.088 10.67-3.801 14.178-5.143 8.336-2.992 14.941-6.22 19.816-9.684Zm-69.36-91.635C56.63 5.092 45.462 2.573 35.554 3.36c-11.167.945-19.896 5.117-26.187 12.517C3.705 22.805 1.74 30.284 3.47 38.314c1.258 5.825 4.561 11.572 9.909 17.24 5.82 5.983 13.29 10.943 22.412 14.879 10.852 4.566 22.334 7.479 34.444 8.738 1.573.157 2.596-.393 3.067-1.653 2.36-7.715 7.392-15.43 15.099-23.145 5.662-5.668 12.582-11.415 20.761-17.24 1.258-.63 2.045-1.339 2.359-2.126-.944-.945-3.461-2.519-7.55-4.723-19.66-11.179-31.298-17.635-34.916-19.367Zm117.724 7.322c-5.19-.158-10.931.393-17.222 1.653C156.502 22.41 141.796 28 125.44 36.66c-.944.315-1.416.788-1.416 1.417l.236.472c.157 0 .236.08.236.237 4.717 2.204 7.391 3.385 8.02 3.543 17.144 7.715 33.186 10.627 48.128 8.738 7.707-.945 14.549-3.621 20.526-8.03 1.101-.787 2.437-2.126 4.009-4.015 1.888-2.834 2.518-5.747 1.889-8.738-.472-3.15-2.124-5.669-4.955-7.558-4.089-2.52-9.201-4.015-15.335-4.487Z" clip-rule="evenodd"/></svg>
